X:1
T:James Gibb editions
T:Psalm 82 (Becker) - Schütz
%%score [ ( 1 2 ) ( 3 4 ) ]
L:1/8
Q:1/4=100
M:2/2
K:F
V:1 treble nm="Soprano Alto"
V:2 treble 
V:3 bass nm="Tenor Bass"
V:4 bass 
V:1
"^Cornelius Becker\n(1561-1604)""^Psalm 82, SWV 179""^Heinrich Schütz\n(1585-1672)" c4 f2 c2 | %1
w: ~Merkt auf, die|
w: |
w: den Her- ren|
 d2 c2 B2 c2 | A2 B2 c2 d2 | f2 _e2 d4 | c4 :| c4 d2 B2 |[M:2/2] B2 G2 A2 B2 | c4 A4 | %8
w: ihr an Got- tes|Statt führt Herr- schaft,|groß und klei-|ne,||ihr denn se- hen|an im|
w: ||||wie lang wollt|||
w: ihr zum Rich- ter|habt, er ist in|eu- er G'mei-|ne,||||
 B2 c2 d2 f2 | _e2 d2 c4 | B4 c2 _e2 | d2 c2 (BA G2) | F4 |] %13
w: G'richt des Gott- lo-|sen Per- son|und un- recht|Ur- teil fäl\- * *|len?|
w: |||||
w: |||||
V:2
 A4 A2 A2 | B2 A2 G2 G2 | F2 F2 F2 F2 | A2 G2 G4 | G4 :| F4 F2 _E2 |[M:2/2] _E2 D2 F2 F2 | E4 F4 | %8
 G2 A2 B2 B2 | B2 B2 A4 | G4 A2 B2 | B2 G2 (G F2 =E) | F4 |] %13
V:3
 F4 C2 F2 | F2 F2 D2 G,2 | C2 D2 C2 B,2 | C2 C4 =B,2 | C4 :| A,4 B,2 G,2 |[M:2/2] G,2 B,2 C2 D2 | %7
 G,4 D4 | %8
 D2 F2"^2. Witwen und Waisen schaffet Recht und helfet dem Elenden,\nein'm jeden gleiches Urteil sprecht, des Armen Not zu wenden,\ndie Sachen laßt nicht werden alt, helft dem Bedrängten alsobald,\nwenn er sein Not euch klaget.\n\n3. Aber man hört an allem Ort über Gewalt groß klagen,\nGott selbst klagt, daß nach seinem Wort Regenten nichts mehr fragen,\nder Weg des Bösen ihn' beliebt, drum, weil man nichts denn Frevel übt,\ndes Landes Grundfest fallen.\n\n5. Weil denn nichts taugt der ganze Hauf mit seinem eiteln Dichten,\nso mach dich, Herr Gott, selber auf, das Volk im Land zu richten,\nder Heiden Richter, Jesu Christ, und rechter Erbherr selber bist,\ndir g'bührt allein die Ehre." F2 D2 | %9
 G2 F2 F4 | D4 F2 G2 | F2 _E2 (!courtesy!_E/D/C/B,/ C2) | C4 |] %13
V:4
 F,4 F,2 F,2 | B,2 F,2 G,2 E,2 | F,2 B,2 A,2 B,2 | F,2 C,2 G,4 | C,4 :| F,4 B,,2 _E,2 | %6
[M:2/2] _E,2 G,2 F,2 D,2 | C,4 D,4 | G,2 F,2 B,2 B,2 | _E,2 B,2 F,4 | G,4 F,2 _E,2 | %11
 B,,2 C,2 (_E,F, C,2) | F,4 |] %13

